!!!OTL: Der heimkehrende Soldat
!!!OTL-incipit:Es ritten drei Reiter zum Tore hinaus, ade!
!!!ARE: Europa, Mitteleuropa, Deutschland
!!!YOR: 5, S. 160
!!    1894 gedruckt in Leipzig
!!!SCT: Q1103D
!!!TXL: @@DE
!!!YEM: Copyright 1995, estate of Helmut Schaffrath.
**kern	**text
*ICvox	*
*M6/8	*
*k[f#]	*
*G:	*
!LO:TX:a:t=E. B. Nr. 76a	!
{8d	Es
=1	=1
8dL	rit-
8g	-ten
8gJ	drei
8gL	Rei-
8a	-ter
8bJ	ʒum
=2	=2
8.bL	To-
16a	-re
8aJ	hin-
4a	-aus,
8dd	a-
=3	=3
4.b	-de!
4r}	.
{8d	Feins-
=4	=4
8dL	-lieb-
8g	-chen,
8gJ	das
8gL	schau-
8a	-te
8bJ	ʒum
=5	=5
8.bL	Fen-
16a	-ster
8aJ	hin-
4a	-aus,
8dd	a-
=6	=6
4.b	-de!
4r}	.
{(16gL	Und
16bJ)	.
=7	=7
8ddL	wenn
8dd	es
8ddJ	denn
(8.ddL	soll
16ee)	ge-
8ddJ	.
=8	=8
(8ddL	-schie-
8cc)	.
8ccJ	-den
4cc}	sein,
{8cc	so
=9	=9
8bL	reich
8b	mir
8bJ	dein
8.ddL	gol-
16cc	-de-
8bJ	-nes
=10	=10
(8bL	Rin-
8a)	.
8aJ	-ge-
4a}	-lein!
{8dd	A-
=11	=11
4b	-de,
8b	a-
4a	-de,
8a	a-
=12	=12
4.g}	-de!
{4.dd	A-
=13	=13
8.bL	-de,
16cc	.
8bJ	a-
8aL	-de,
8g	.
8aJ	a-
=14	=14
4.g	-de!
4r}	.
==	==
!!!AGN: ???
!! Melodievergleich zu Q0103A, anderes Lied.
!!    Anhaengsel; fuenfte und sechste Zeile = Refrain.
!!!ONB: ESAC (Essen Associative Code) Database: BALLADE
!!!AMT: compound duple
!!!AIN: vox
!!!EED: Helmut Schaffrath
!!!EEV: 1.0
!!!source: Deutsche Volkslieder mit ihren Melodien Balladen. Herausgegeben vom Deutschen Volksliedarchiv. Fünfter Teil. Freiburg/Breisgau 1965.
!!!page: 160
!!!ENC: Anna Maria Matuszewska
!!!EEV: 2025/03/04
*-	*-
